X: 09115
T: TWO FIDDLES
C: Bob McQuillen 20 Mar 1992
B: Bob's Note Book 9 p. 115
R: reel
Z: 2017 John Chambers <jc:trillian.mit.edu>
L: 1/8
M: C
K: A
|:\
E2A2 cBA2 | cBcd c2A2 | e2cB Acec | dfec B4 |
E2A2 cBAB | cBcd e2c2 | e2ce f2a2 | edcB A4 :|
|:\
B2ce d2Bc | dcBA G2E2 | A2cA BcdB | cdec B4 |
e2fe d2Bc | dcBd c2A2 | EAcA Bcde | c2A2A2 :|\
["LAST TIME:"EAce defg | a2A2 A4 |]
%%begintext align
%% It was such a pleasure for me to write this tune for the
%% "Two Fiddles", Jacqueline Gilman and Dudley Laufman -
%% with love to you both and many thanks for happy times.
%%endtext

%%sep 1 1 500

%%sep 1 1 500

